**kern	**kern	**kern	**kern
*staff3	*staff4	*staff1	*staff2
*clefF4	*clefF4	*clefG2	*clefG2
*k[f#c#]	*k[f#c#]	*k[f#c#]	*k[f#c#]
*M2/4	*M2/4	*M2/4	*M2/4
*D:	*D:	*D:	*D:
=-	=-	=-	=-
*	*clefF4	*clefF4	*clefF4
*M2/4	*M2/4	*M2/4	*M2/4
2r	8AAA'L	(4E	4C#
.	8BB'J	.	.
.	8AA'L	8F#L)	8r
.	8GG'J	8GJ	8E
=255	=255	=255	=255
2r	8FF#'L	4.A	8D'L
.	8EE'J	.	8E'J
.	8DD'	.	8F#'
.	8r	(16BLL	8r
.	.	16c#JJ)	.
=256	=256	=256	=256
2r	8AAA 8AA	8dL	8E 8G
.	8r	8c#J	8r
.	8AAA 8AA	8BL	8E 8G
.	8r	8c#J	8r
=257	=257	=257	=257
2r	8DD	(4d	8D 8F#
.	8r	.	8r
.	4r	8A)	4r
.	.	8r	.
*	*	*clefG2	*
=	=	=	=
*M3/8	*M3/8	*M3/8	*M3/8
4.r	8.G 8.A 8.c# 8.e	8.a 8.cc# 8.ee	4.r
.	16r	32r	.
.	.	32ff#LLK	.
.	8r	16.gg	.
.	.	32gg#JJk	.
=258	=258	=258	=258
4.r	8.F# 8.A 8.d 8.f#	8.a 8.dd 8.ff# 8.aa	4.r
.	16r	32r	.
.	.	32bbLLK	.
.	8r	16.ccc#	.
.	.	32dddJJk	.
*	*clefG2	*	*
=259	=259	=259	=259
4.r	8.A 8.e 8.g	8.eeL 8.gg 8.ddd	4.r
.	16r	(16ccc#L	.
.	8g 8a 8cc# 8ee	16bb	.
.	.	16ccc#JJ)	.
=260	=260	=260	=260
4.r	4f# 4a 4dd	[8dddL	4.r
.	.	32dddLL]	.
.	.	(64ccc#L	.
.	.	64ddd	.
.	.	64eee	.
.	.	64ddd	.
.	.	64ccc#	.
.	.	64bbJJ	.
.	8r	16aaJJ)	.
.	.	16r	.
=261	=261	=261	=261
*-	*-	*-	*-
